X:1
T:English Suite II Bourree I and II
T:BWV 807
T:J. S. Bach
%%score { ( 1 4 ) | ( 2 3 5 6 ) }
L:1/8
Q:1/4=200
M:4/4
K:C
V:1 treble nm="Harp"
V:4 treble 
V:2 bass 
V:3 bass 
V:5 bass 
V:6 bass 
V:1
"^Prestissimo" a2 | f/4e/4f/4e/4f/4e/4f/4e/4 de f2 ed | e2 A2 A2 a z | %3
 f/4e/4f/4e/4f/4e/4f/4e/4 de f2 ed | e2 dc d2 cd | e2 dc d2 cB | c2 Bc d2 cd | edce dcBc | %8
 dcBc AcBd | cBAe cBAe | cBAd cBAd | BAGd BAGd | BAGc BAGc | AG^Fc AGFc | AG^FB AGFB | %15
 A/4G/4A/4G/4A/4G/4A/4G/4 ^FG A2 GF | G^FEF GABF | GA^FG AGFA | GEGB GBeB | egeg ag^fe | %20
 ^fe^db fedb | g^feb gfeb | ^d^cBb dcBd | e2 ^f2 B2 e/4^d/4e/4d/4e/4d/4e/4d/4 | e6 a2 | %25
 f/4e/4f/4e/4f/4e/4f/4e/4 de f2 ed | e2 A2 A2 a z | f/4e/4f/4e/4f/4e/4f/4e/4 de f2 ed | %28
 e2 dc d2 cd | e2 dc d2 cB | c2 Bc d2 cd | edce dcBc | dcBc AcBd | cBAe cBAe | cBAd cBAd | %35
 BAGd BAGd | BAGc BAGc | AG^Fc AGFc | AG^FB AGFB | A/4G/4A/4G/4A/4G/4A/4G/4 ^FG A2 GF | %40
 G^FEF GABF | GA^FG AGFA | GEGB GBeB | egeg ag^fe | ^fe^db fedb | g^feb gfeb | ^d^cBb dcBd | %47
 e2 ^f2 B2 e/4^d/4e/4d/4e/4d/4e/4d/4 | e6 B2 | c/4B/4c/4B/4c/4B/4c/4B/4 AB c2 Bc | d2 cB A^G f2 | %51
 e2 e/4d/4e/4d/4c d2 d/4c/4d/4c/4B | dcBc ABcd | efde fgef | gagf ed^c_b | agfa gfef | gfef dfeg | %57
 feda fedc | _BAGd BAGf | edcg edc_B | AGFc AGFA | _Bcdf efg=B | ^cdeg fgac | %63
 d2- d/e/4d/4c/4d/4e/ f/4e/4f/4e/4f/4e/4f/4e/4 f/4e/4f/4e/4 d | d6 de | f2 de f2 ed | e2 dc d2 cd | %67
 e2 dc d2 cB | c2 Bc d2 cB | c2 c/4B/4c/4B/4A B2 AB | c2 c/4B/4c/4B/4A B2 B/4A/4B/4A/4^G | %71
 A2 fe dcBA | ^GABG E2 B2 | cdeA ^cdeA | defA ^de^fA | e^fgB ef^gB | fgac ^fgac | gabd ^gabe | %78
 abc'^g aefd | e3 f c/4B/4c/4B/4c/4B/4c/4B/4 c/4B/4c/4B/4 A | A6 B2 | %81
 c/4B/4c/4B/4c/4B/4c/4B/4 AB c2 Bc | d2 cB A^G f2 | e2 e/4d/4e/4d/4c d2 d/4c/4d/4c/4B | dcBc ABcd | %85
 efde fgef | gagf ed^c_b | agfa gfef | gfef dfeg | feda fedc | _BAGd BAGf | edcg edc_B | %92
 AGFc AGFA | _Bcdf efg=B | ^cdeg fgac | %95
 d2- d/e/4d/4c/4d/4e/ f/4e/4f/4e/4f/4e/4f/4e/4 f/4e/4f/4e/4 d | d6 de | f2 de f2 ed | e2 dc d2 cd | %99
 e2 dc d2 cB | c2 Bc d2 cB | c2 c/4B/4c/4B/4A B2 AB | c2 c/4B/4c/4B/4A B2 B/4A/4B/4A/4^G | %103
 A2 fe dcBA | ^GABG E2 B2 | cdeA ^cdeA | defA ^de^fA | e^fgB ef^gB | fgac ^fgac | gabd ^gabe | %110
 abc'^g aefd | e3 f c/4B/4c/4B/4c/4B/4c/4B/4 c/4B/4c/4B/4 A | A6 E2 |[K:A] E2 F2 =GFED | %114
 E2 AG A2 E2 | FDCD EDCB, | DCB,C A,2 E2 | E2 F2 =GFED | E2 AG Ac B2 | B4 AGFE | E6 E2 | %121
 E2 F2 =GFED | E2 AG A2 E2 | FDCD EDCB, | DCB,C A,2 E2 | E2 F2 =GFED | E2 AG Ac B2 | B4 AGFE | %128
 E6 G2 | G2 A2 BAGF | AGFG E2 A2 | F^EFA GABF | G^EF^D EC c2 | cdec dBc^A | BcdB cABG | cBdc BAGA | %136
{G} F6 A2 | A6 A2 | AGAF GE =G2 | =G6 G2 | =GFGE FD B2 | B2 c2 dcBA | B2 ed e2 G2 | %143
 A3 B c/4B/4c/4B/4c/4B/4c/4B/4 c/4B/4c/4B/4 A | A6 G2 | G2 A2 BAGF | AGFG E2 A2 | F^EFA GABF | %148
 G^EF^D EC c2 | cdec dBc^A | BcdB cABG | cBdc BAGA |{G} F6 A2 | A6 A2 | AGAF GE =G2 | =G6 G2 | %156
 =GFGE FD B2 | B2 c2 dcBA | B2 ed e2 G2 | A3 B c/4B/4c/4B/4c/4B/4c/4B/4 c/4B/4c/4B/4 A | A6 a2 | %161
[K:C] f/4e/4f/4e/4f/4e/4f/4e/4 de f2 ed | e2 A2 A2 a z | f/4e/4f/4e/4f/4e/4f/4e/4 de f2 ed | %164
 e2 dc d2 cd | e2 dc d2 cB | c2 Bc d2 cd | edce dcBc | dcBc AcBd | cBAe cBAe | cBAd cBAd | %171
 BAGd BAGd | BAGc BAGc | AG^Fc AGFc | AG^FB AGFB | A/4G/4A/4G/4A/4G/4A/4G/4 ^FG A2 GF | %176
 G^FEF GABF | GA^FG AGFA | GEGB GBeB | egeg ag^fe | ^fe^db fedb | g^feb gfeb | ^d^cBb dcBd | %183
 e2 ^f2 B2 e/4^d/4e/4d/4e/4d/4e/4d/4 | e6 B2 | c/4B/4c/4B/4c/4B/4c/4B/4 AB c2 Bc | d2 cB A^G f2 | %187
 e2 e/4d/4e/4d/4c d2 d/4c/4d/4c/4B | dcBc ABcd | efde fgef | gagf ed^c_b | agfa gfef | gfef dfeg | %193
 feda fedc | _BAGd BAGf | edcg edc_B | AGFc AGFA | _Bcdf efg=B | ^cdeg fgac | %199
 d2- d/e/4d/4c/4d/4e/ f/4e/4f/4e/4f/4e/4f/4e/4 f/4e/4f/4e/4 d | d6 de | f2 de f2 ed | e2 dc d2 cd | %203
 e2 dc d2 cB | c2 Bc d2 cB | c2 c/4B/4c/4B/4A B2 AB | c2 c/4B/4c/4B/4A B2 B/4A/4B/4A/4^G | %207
 A2 fe dcBA | ^GABG E2 B2 | cdeA ^cdeA | defA ^de^fA | e^fgB ef^gB | fgac ^fgac | gabd ^gabe | %214
 abc'^g aefd | e3 f c/4B/4c/4B/4c/4B/4c/4B/4 c/4B/4c/4B/4 A | A6 z2 |] %217
V:2
 A,B, | CA,CA, DA,DA, | CA,DA, CA,B,A, | CA,CA, DA,DA, | CA,CA, B,A,B,A, | ^G,B,^F,B, G,B,E,G, | %6
 A,E,A,E, B,E,B,E, | CE,A,E, B,E,^G,E, | A,2 E,2 C,2 E,2 | A,,2 C,2 E,2 G,2 | ^F,2 A,2 D,2 F,2 | %11
 G,,2 B,,2 D,2 ^F,2 | E,2 G,2 C,2 E,2 | ^F,,2 A,,2 C,2 E,2 | ^D,2 ^F,2 B,,2 D,2 | %15
 E,B,,E,B,, ^D,B,,D,B,, | E,2 B,,2 E,,2 ^D,2 | E,B,,E,B,, ^D,B,,D,B,, | E,2 B,,2 E,2 G,2 | %19
 E,2 G,2 B,2 E2 | ^D2 B,2 D2 B,2 | E2 B,2 E,2 G,2 | A,2 G,2 A,2 ^F,2 | G,2 A,2 B,2 B,,2 | %24
 EFED CB, A,B, | CA,CA, DA,DA, | CA,DA, CA,B,A, | CA,CA, DA,DA, | CA,CA, B,A,B,A, | %29
 ^G,B,^F,B, G,B,E,G, | A,E,A,E, B,E,B,E, | CE,A,E, B,E,^G,E, | A,2 E,2 C,2 E,2 | A,,2 C,2 E,2 G,2 | %34
 ^F,2 A,2 D,2 F,2 | G,,2 B,,2 D,2 ^F,2 | E,2 G,2 C,2 E,2 | ^F,,2 A,,2 C,2 E,2 | %38
 ^D,2 ^F,2 B,,2 D,2 | E,B,,E,B,, ^D,B,,D,B,, | E,2 B,,2 E,,2 ^D,2 | E,B,,E,B,, ^D,B,,D,B,, | %42
 E,2 B,,2 E,2 G,2 | E,2 G,2 B,2 E2 | ^D2 B,2 D2 B,2 | E2 B,2 E,2 G,2 | A,2 G,2 A,2 ^F,2 | %47
 G,2 A,2 B,2 B,,2 | E,2 B,,2 E,,2 E,^F, | ^G,E,G,E, A,E,A,E, | B,E,B,E, CE,DE, | %51
 CE,A,E, B,E,^G,E, | A,2 E,2 A,,E,A,B, | ^CA,CA, DA,DA, | EA,EA, FA,GA, | FA,DA, EA,^CA, | %56
 D2 A,2 F,2 A,2 | D,2 D,,2 E,,2 F,,2 | G,,2 G,2 A,2 _B,2 | C2 C,,2 D,,2 E,,2 | F,,2 C,2 F,2 D,2 | %61
 G,2 F,2 G,2 E,2 | A,2 G,2 A,2 F,2 | _B,2 G,2 A,2 A,,2 | D,E,F,E, D,C,B,,A,, | %65
 G,,A,,B,,C, D,E,F,G, | C,CB,A, G,F,E,D, | C,CB,A, ^G,B,A,G, | A,E,^G,A, B,E,^F,G, | %69
 A,A^G^F EDCB, | A,G,F,E, D,C,D,E, | F,2 E,2 F,2 D,2 | E,4- E,D,C,B,, | A,,2 A,4 G,2 | %74
 F,2 D,2 B,2 A,2 | G,2 E,2 E4- | E2 DC DB,CA, | B,2 F2 E2 D2 | CB,A,B, CA,DB, | C^G,A,D, E,2 E,,2 | %80
 z2 E,2 A,2 E,^F, | ^G,E,G,E, A,E,A,E, | B,E,B,E, CE,DE, | CE,A,E, B,E,^G,E, | A,2 E,2 A,,E,A,B, | %85
 ^CA,CA, DA,DA, | EA,EA, FA,GA, | FA,DA, EA,^CA, | D2 A,2 F,2 A,2 | D,2 D,,2 E,,2 F,,2 | %90
 G,,2 G,2 A,2 _B,2 | C2 C,,2 D,,2 E,,2 | F,,2 C,2 F,2 D,2 | G,2 F,2 G,2 E,2 | A,2 G,2 A,2 F,2 | %95
 _B,2 G,2 A,2 A,,2 | D,E,F,E, D,C,B,,A,, | G,,A,,B,,C, D,E,F,G, | C,CB,A, G,F,E,D, | %99
 C,CB,A, ^G,B,A,G, | A,E,^G,A, B,E,^F,G, | A,A^G^F EDCB, | A,G,F,E, D,C,D,E, | F,2 E,2 F,2 D,2 | %104
 E,4- E,D,C,B,, | A,,2 A,4 G,2 | F,2 D,2 B,2 A,2 | G,2 E,2 E4- | E2 DC DB,CA, | B,2 F2 E2 D2 | %110
 CB,A,B, CA,DB, | C^G,A,D, E,2 E,,2 | z2 E,2 A,2 ^C2 |[K:A] C2 D2 EDCB, | C2 CB, C2 C2 | B,8 | %116
 A,6 A,2 | C2 D2 EDCB, | C6[I:staff -1] ^D2 |[I:staff +1] A,G,F,E, B,2 B,,2 | E,2 B,,2 E,,2 C2 | %121
 C2 D2 EDCB, | C2 CB, C2 C2 | B,8 | A,6 A,2 | C2 D2 EDCB, | C6[I:staff -1] ^D2 | %127
[I:staff +1] A,G,F,E, B,2 B,,2 |[I:staff -1] E6[I:staff +1] B,2 | B,2 C2 DCB,A, | %130
 CB,A,B, G,2[I:staff -1] E2 |[I:staff +1] A,4 B,2 F,2 | ^E,2 A,2 G,2 B,2 | ^A,2 C2 B,2 E2 | %134
 D2 B,2 A,2 G,2 | A,2 G,2 F,2 ^E,2 | F,2 z2 z2 F,2 | ^D,2 F,E, F,2 F,2 | E,6 E,2 | %139
 C,2 E,D, E,2 E,2 | D,6 F,2 | E,4 E,2 F,2 | G,6 B,2 | A,4 E,4 | z2 z E, A,2 B,2 | B,2 C2 DCB,A, | %146
 CB,A,B, G,2[I:staff -1] E2 |[I:staff +1] A,4 B,2 F,2 | ^E,2 A,2 G,2 B,2 | ^A,2 C2 B,2 E2 | %150
 D2 B,2 A,2 G,2 | A,2 G,2 F,2 ^E,2 | F,2 z2 z2 F,2 | ^D,2 F,E, F,2 F,2 | E,6 E,2 | %155
 C,2 E,D, E,2 E,2 | D,6 F,2 | E,4 E,2 F,2 | G,6 B,2 | A,4 E,4 | z2 z E, A,2 A,B, | %161
[K:C] CA,CA, DA,DA, | CA,DA, CA,B,A, | CA,CA, DA,DA, | CA,CA, B,A,B,A, | ^G,B,^F,B, G,B,E,G, | %166
 A,E,A,E, B,E,B,E, | CE,A,E, B,E,^G,E, | A,2 E,2 C,2 E,2 | A,,2 C,2 E,2 G,2 | ^F,2 A,2 D,2 F,2 | %171
 G,,2 B,,2 D,2 ^F,2 | E,2 G,2 C,2 E,2 | ^F,,2 A,,2 C,2 E,2 | ^D,2 ^F,2 B,,2 D,2 | %175
 E,B,,E,B,, ^D,B,,D,B,, | E,2 B,,2 E,,2 ^D,2 | E,B,,E,B,, ^D,B,,D,B,, | E,2 B,,2 E,2 G,2 | %179
 E,2 G,2 B,2 E2 | ^D2 B,2 D2 B,2 | E2 B,2 E,2 G,2 | A,2 G,2 A,2 ^F,2 | G,2 A,2 B,2 B,,2 | %184
 E,2 B,,2 E,,2 E,^F, | ^G,E,G,E, A,E,A,E, | B,E,B,E, CE,DE, | CE,A,E, B,E,^G,E, | %188
 A,2 E,2 A,,E,A,B, | ^CA,CA, DA,DA, | EA,EA, FA,GA, | FA,DA, EA,^CA, | D2 A,2 F,2 A,2 | %193
 D,2 D,,2 E,,2 F,,2 | G,,2 G,2 A,2 _B,2 | C2 C,,2 D,,2 E,,2 | F,,2 C,2 F,2 D,2 | G,2 F,2 G,2 E,2 | %198
 A,2 G,2 A,2 F,2 | _B,2 G,2 A,2 A,,2 | D,E,F,E, D,C,B,,A,, | G,,A,,B,,C, D,E,F,G, | %202
 C,CB,A, G,F,E,D, | C,CB,A, ^G,B,A,G, | A,E,^G,A, B,E,^F,G, | A,A^G^F EDCB, | A,G,F,E, D,C,D,E, | %207
 F,2 E,2 F,2 D,2 | E,4- E,D,C,B,, | A,,2 A,4 G,2 | F,2 D,2 B,2 A,2 | G,2 E,2 E4- | E2 DC DB,CA, | %213
 B,2 F2 E2 D2 | CB,A,B, CA,DB, | C^G,A,D, E,2 E,,2 | z2 E,2 A,2 z2 |] %217
V:3
 x2 | x8 | x8 | x8 | x8 | x8 | x8 | x8 | x8 | x8 | x8 | x8 | x8 | x8 | x8 | x8 | x8 | x8 | x8 | %19
 x8 | x8 | x8 | x8 | x8 | x8 | x8 | x8 | x8 | x8 | x8 | x8 | x8 | x8 | x8 | x8 | x8 | x8 | x8 | %38
 x8 | x8 | x8 | x8 | x8 | x8 | x8 | x8 | x8 | x8 | x8 | x8 | x8 | x8 | x8 | x8 | x8 | x8 | x8 | %57
 x8 | x8 | x8 | x8 | x8 | x8 | x8 | x8 | x8 | x8 | x8 | x8 | x8 | x8 | x8 | x8 | x8 | x8 | x8 | %76
 x8 | x8 | x8 | x8 | A,,6 z2 | x8 | x8 | x8 | x8 | x8 | x8 | x8 | x8 | x8 | x8 | x8 | x8 | x8 | %94
 x8 | x8 | x8 | x8 | x8 | x8 | x8 | x8 | x8 | x8 | x8 | x8 | x8 | x8 | x8 | x8 | x8 | x8 | %112
 A,,6 A,2 |[K:A] A,8- | A,8- | A,2 A,2 G,2 E,2 | z2 E,2 C,2 E,2 | A,8- | A,2 G,2 F,2 A,2 | x8 | %120
 x6 A,2 | A,8- | A,8- | A,2 A,2 G,2 E,2 | z2 E,2 C,2 E,2 | A,8- | A,2 G,2 F,2 A,2 | x8 | %128
 E,2 B,,2 E,,2 E,2 | E,8- | E,6 C,2 | D,2 C,2 B,,2 D,2 | C,6 C,2 | F,8- | F,8- | F,2 B,,2 D,4 | %136
 F,D,C,B,, A,,G,,A,,F,, | B,,6 B,,2 | E,,6 E,,2 | A,,6 A,,2 | D,,6 D,2 | G,,4 A,,4 | D,6 D,2 | %143
 C,2 D,2 E,2 E,,2 | A,,6 E,2 | E,8- | E,6 C,2 | D,2 C,2 B,,2 D,2 | C,6 C,2 | F,8- | F,8- | %151
 F,2 B,,2 D,4 | F,D,C,B,, A,,G,,A,,F,, | B,,6 B,,2 | E,,6 E,,2 | A,,6 A,,2 | D,,6 D,2 | G,,4 A,,4 | %158
 D,6 D,2 | C,2 D,2 E,2 E,,2 | A,,6 x2 |[K:C] x8 | x8 | x8 | x8 | x8 | x8 | x8 | x8 | x8 | x8 | x8 | %172
 x8 | x8 | x8 | x8 | x8 | x8 | x8 | x8 | x8 | x8 | x8 | x8 | x8 | x8 | x8 | x8 | x8 | x8 | x8 | %191
 x8 | x8 | x8 | x8 | x8 | x8 | x8 | x8 | x8 | x8 | x8 | x8 | x8 | x8 | x8 | x8 | x8 | x8 | x8 | %210
 x8 | x8 | x8 | x8 | x8 | x8 | A,,6 x2 |] %217
V:4
 x2 | x8 | x8 | x8 | x8 | x8 | x8 | x8 | x8 | x8 | x8 | x8 | x8 | x8 | x8 | x8 | x8 | x8 | x8 | %19
 x8 | x8 | x8 | x8 | x8 | x8 | x8 | x8 | x8 | x8 | x8 | x8 | x8 | x8 | x8 | x8 | x8 | x8 | x8 | %38
 x8 | x8 | x8 | x8 | x8 | x8 | x8 | x8 | x8 | x8 | x8 | x8 | x8 | x8 | x8 | x8 | x8 | x8 | x8 | %57
 x8 | x8 | x8 | x8 | x8 | x8 | x8 | x8 | x8 | x8 | x8 | x8 | x8 | x8 | x8 | x8 | x8 | x8 | x8 | %76
 x8 | x8 | x8 | x8 | x8 | x8 | x8 | x8 | x8 | x8 | x8 | x8 | x8 | x8 | x8 | x8 | x8 | x8 | x8 | %95
 x8 | x8 | x8 | x8 | x8 | x8 | x8 | x8 | x8 | x8 | x8 | x8 | x8 | x8 | x8 | x8 | x8 | x8 | %113
[K:A] x8 | x8 | x8 | x8 | x8 | x8 | E6 ^D2 | E6 z2 | x8 | x8 | x8 | x8 | x8 | x8 | E6 ^D2 | x8 | %129
 x8 | x8 | x8 | x8 | x8 | x8 | x8 | z6 C2 | B,2 ^DC D2 D2 | E6 B,2 | A,2 CB, C2 C2 | D6 D2 | %141
 D2 E2 E4 | E6 E2 | E3 A G4 | z E C4 z2 | x8 | x8 | x8 | x8 | x8 | x8 | x8 | z6 C2 | %153
 B,2 ^DC D2 D2 | E6 B,2 | A,2 CB, C2 C2 | D6 D2 | D2 E2 E4 | E6 E2 | E3 A G4 | z E C4 x2 | %161
[K:C] x8 | x8 | x8 | x8 | x8 | x8 | x8 | x8 | x8 | x8 | x8 | x8 | x8 | x8 | x8 | x8 | x8 | x8 | %179
 x8 | x8 | x8 | x8 | x8 | x8 | x8 | x8 | x8 | x8 | x8 | x8 | x8 | x8 | x8 | x8 | x8 | x8 | x8 | %198
 x8 | x8 | x8 | x8 | x8 | x8 | x8 | x8 | x8 | x8 | x8 | x8 | x8 | x8 | x8 | x8 | x8 | x8 | x8 |] %217
V:5
 x2 | x8 | x8 | x8 | x8 | x8 | x8 | x8 | x8 | x8 | x8 | x8 | x8 | x8 | x8 | x8 | x8 | x8 | x8 | %19
 x8 | x8 | x8 | x8 | x8 | x8 | x8 | x8 | x8 | x8 | x8 | x8 | x8 | x8 | x8 | x8 | x8 | x8 | x8 | %38
 x8 | x8 | x8 | x8 | x8 | x8 | x8 | x8 | x8 | x8 | x8 | x8 | x8 | x8 | x8 | x8 | x8 | x8 | x8 | %57
 x8 | x8 | x8 | x8 | x8 | x8 | x8 | x8 | x8 | x8 | x8 | x8 | x8 | x8 | x8 | x8 | x8 | x8 | x8 | %76
 x8 | x8 | x8 | x8 | x8 | x8 | x8 | x8 | x8 | x8 | x8 | x8 | x8 | x8 | x8 | x8 | x8 | x8 | x8 | %95
 x8 | x8 | x8 | x8 | x8 | x8 | x8 | x8 | x8 | x8 | x8 | x8 | x8 | x8 | x8 | x8 | x8 | x8 | %113
[K:A] x8 | x8 | x8 | x8 | x8 | x8 | x8 | x8 | x8 | x8 | x8 | x8 | x8 | x8 | x8 | x8 | x8 | x8 | %131
 x8 | z6 G,2 | x8 | x8 | x8 | x8 | x8 | x8 | x8 | x8 | x8 | x8 | x8 | x8 | x8 | x8 | x8 | z6 G,2 | %149
 x8 | x8 | x8 | x8 | x8 | x8 | x8 | x8 | x8 | x8 | x8 | x8 |[K:C] x8 | x8 | x8 | x8 | x8 | x8 | %167
 x8 | x8 | x8 | x8 | x8 | x8 | x8 | x8 | x8 | x8 | x8 | x8 | x8 | x8 | x8 | x8 | x8 | x8 | x8 | %186
 x8 | x8 | x8 | x8 | x8 | x8 | x8 | x8 | x8 | x8 | x8 | x8 | x8 | x8 | x8 | x8 | x8 | x8 | x8 | %205
 x8 | x8 | x8 | x8 | x8 | x8 | x8 | x8 | x8 | x8 | x8 | x8 |] %217
V:6
 x2 | x8 | x8 | x8 | x8 | x8 | x8 | x8 | x8 | x8 | x8 | x8 | x8 | x8 | x8 | x8 | x8 | x8 | x8 | %19
 x8 | x8 | x8 | x8 | x8 | x8 | x8 | x8 | x8 | x8 | x8 | x8 | x8 | x8 | x8 | x8 | x8 | x8 | x8 | %38
 x8 | x8 | x8 | x8 | x8 | x8 | x8 | x8 | x8 | x8 | x8 | x8 | x8 | x8 | x8 | x8 | x8 | x8 | x8 | %57
 x8 | x8 | x8 | x8 | x8 | x8 | x8 | x8 | x8 | x8 | x8 | x8 | x8 | x8 | x8 | x8 | x8 | x8 | x8 | %76
 x8 | x8 | x8 | x8 | x8 | x8 | x8 | x8 | x8 | x8 | x8 | x8 | x8 | x8 | x8 | x8 | x8 | x8 | x8 | %95
 x8 | x8 | x8 | x8 | x8 | x8 | x8 | x8 | x8 | x8 | x8 | x8 | x8 | x8 | x8 | x8 | x8 | x8 | %113
[K:A] x8 | x8 | x8 | x8 | x8 | x8 | x8 | x8 | x8 | x8 | x8 | x8 | x8 | x8 | x8 | x8 | x8 | x8 | %131
 x8 | z6 ^E,2 | x8 | x8 | x8 | x8 | x8 | x8 | x8 | x8 | x8 | x8 | x8 | x8 | x8 | x8 | x8 | %148
 z6 ^E,2 | x8 | x8 | x8 | x8 | x8 | x8 | x8 | x8 | x8 | x8 | x8 | x8 |[K:C] x8 | x8 | x8 | x8 | %165
 x8 | x8 | x8 | x8 | x8 | x8 | x8 | x8 | x8 | x8 | x8 | x8 | x8 | x8 | x8 | x8 | x8 | x8 | x8 | %184
 x8 | x8 | x8 | x8 | x8 | x8 | x8 | x8 | x8 | x8 | x8 | x8 | x8 | x8 | x8 | x8 | x8 | x8 | x8 | %203
 x8 | x8 | x8 | x8 | x8 | x8 | x8 | x8 | x8 | x8 | x8 | x8 | x8 | x8 |] %217

